public/img/icon-isFree-stroke.svg

<svg width="48" height="24" viewBox="0 0 48 24" fill="none" xmlns="http://www.w3.org/2000/svg">
<rect x="0.5" y="0.5" width="47" height="23" rx="3.5" stroke="#00A894"/>
<path d="M13.5 15.4131H7.91406V7.65625H13.5V15.4131ZM9.53906 14.1309H11.9258V8.92578H9.53906V14.1309ZM17.0166 18.1934H15.3789V6.61523H17.0166V18.1934ZM28.8933 16.8857H18.3181V15.5273H22.7615V13.4453H19.1941V12.1758H20.7429V8.875H19.1433V7.58008H28.0046V8.875H26.3796V12.1758H27.9539V13.4453H24.3738V15.5273H28.8933V16.8857ZM24.78 12.1758V8.875H22.3679V12.1758H24.78ZM38.4595 9.45898H40.021V10.8174H38.4595V13.585H36.8345V6.61523H38.4595V9.45898ZM38.4595 18.041H30.9058V14.0928H38.4595V18.041ZM32.5054 16.7461H36.8599V15.3623H32.5054V16.7461ZM36.1489 8.93848H29.2935V7.65625H31.9214V6.55176H33.5337V7.65625H36.1489V8.93848ZM32.7212 9.29395C33.2713 9.29395 33.7622 9.38281 34.1939 9.56055C34.6255 9.73405 34.9619 9.97738 35.2031 10.2905C35.4444 10.6037 35.565 10.9613 35.565 11.3633C35.565 11.778 35.4444 12.144 35.2031 12.4614C34.9619 12.7788 34.6255 13.0243 34.1939 13.1978C33.7665 13.3713 33.2756 13.458 32.7212 13.458C32.1584 13.458 31.659 13.3713 31.2232 13.1978C30.7915 13.0243 30.4551 12.7788 30.2139 12.4614C29.9727 12.144 29.8521 11.778 29.8521 11.3633C29.8521 10.9613 29.9727 10.6037 30.2139 10.2905C30.4551 9.97738 30.7936 9.73405 31.2295 9.56055C31.6654 9.38281 32.1626 9.29395 32.7212 9.29395ZM32.7212 10.5127C32.3277 10.5127 32.0145 10.5889 31.7818 10.7412C31.549 10.8893 31.4348 11.0967 31.439 11.3633C31.4348 11.651 31.5469 11.8732 31.7754 12.0298C32.0082 12.1864 32.3234 12.2646 32.7212 12.2646C33.119 12.2646 33.4364 12.1864 33.6734 12.0298C33.9103 11.8732 34.0288 11.651 34.0288 11.3633C34.0288 11.0967 33.9082 10.8893 33.667 10.7412C33.43 10.5889 33.1148 10.5127 32.7212 10.5127Z" fill="#00A894"/>
</svg>

<svg xmlns="http://www.w3.org/2000/svg" width="48" height="24" fill="none" viewBox="0 0 48 24"><rect width="47" height="23" x=".5" y=".5" stroke="#00A894" rx="3.5"/><path fill="#00A894" d="M13.5 15.413H7.914V7.656H13.5zm-3.96-1.282h2.386V8.926H9.539zm7.477 4.062h-1.638V6.615h1.638zm11.876-1.307H18.318v-1.359h4.444v-2.082h-3.568v-1.27h1.549v-3.3h-1.6V7.58h8.862v1.295H26.38v3.3h1.574v1.27h-3.58v2.082h4.52zm-4.113-4.71V8.875h-2.412v3.3zm13.68-2.717h1.561v1.358h-1.562v2.768h-1.625v-6.97h1.625zm0 8.582h-7.554v-3.948h7.554zm-5.955-1.295h4.355v-1.384h-4.355zm3.644-7.808h-6.855V7.656h2.627V6.552h1.613v1.104h2.615zm-3.428.356q.825 0 1.473.267.647.26 1.01.73.36.47.361 1.072 0 .622-.362 1.098t-1.01.737q-.64.26-1.472.26-.844 0-1.498-.26-.647-.261-1.01-.737a1.77 1.77 0 0 1-.36-1.098q0-.603.36-1.072.362-.47 1.017-.73.653-.267 1.491-.267m0 1.219q-.59 0-.94.228a.69.69 0 0 0-.342.622.75.75 0 0 0 .336.667q.35.234.946.235.597 0 .952-.235a.75.75 0 0 0 .356-.667q0-.4-.362-.622-.355-.228-.946-.228"/></svg>
